svg/fluentui-system-icons/ic_fluent_text_bullet_list_ltr_90_20_filled.svg

<svg width="20" height="20" viewBox="0 0 20 20" fill="none" xmlns="http://www.w3.org/2000/svg">
<path d="M14 3.25C14 3.94036 14.5596 4.5 15.25 4.5C15.9404 4.5 16.5 3.94036 16.5 3.25C16.5 2.55964 15.9404 2 15.25 2C14.5596 2 14 2.55964 14 3.25ZM15.25 7C15.6642 7 16 7.33579 16 7.75L16 17.25C16 17.6642 15.6642 18 15.25 18C14.8358 18 14.5 17.6642 14.5 17.25L14.5 7.75C14.5 7.33579 14.8358 7 15.25 7ZM11 7.75C11 7.33579 10.6642 7 10.25 7C9.83579 7 9.5 7.33579 9.5 7.75L9.5 17.25C9.5 17.6642 9.83579 18 10.25 18C10.6642 18 11 17.6642 11 17.25L11 7.75ZM6 7.75C6 7.33579 5.66421 7 5.25 7C4.83579 7 4.5 7.33579 4.5 7.75L4.5 17.25C4.5 17.6642 4.83579 18 5.25 18C5.66421 18 6 17.6642 6 17.25L6 7.75ZM10.25 4.5C9.55964 4.5 9 3.94036 9 3.25C9 2.55964 9.55964 2 10.25 2C10.9404 2 11.5 2.55964 11.5 3.25C11.5 3.94036 10.9404 4.5 10.25 4.5ZM4 3.25C4 3.94036 4.55964 4.5 5.25 4.5C5.94036 4.5 6.5 3.94036 6.5 3.25C6.5 2.55964 5.94036 2 5.25 2C4.55964 2 4 2.55964 4 3.25Z" fill="#212121"/>
</svg>

<svg xmlns="http://www.w3.org/2000/svg" width="20" height="20"><path d="M14 3.25a1.25 1.25 0 1 0 2.5 0 1.25 1.25 0 0 0-2.5 0ZM15.25 7a.75.75 0 0 1 .75.75v9.5a.75.75 0 0 1-1.5 0v-9.5a.75.75 0 0 1 .75-.75ZM11 7.75a.75.75 0 0 0-1.5 0v9.5a.75.75 0 0 0 1.5 0v-9.5Zm-5 0a.75.75 0 0 0-1.5 0v9.5a.75.75 0 0 0 1.5 0v-9.5Zm4.25-3.25a1.25 1.25 0 1 1 0-2.5 1.25 1.25 0 0 1 0 2.5ZM4 3.25a1.25 1.25 0 1 0 2.5 0 1.25 1.25 0 0 0-2.5 0Z"/></svg>
